svgs/thin/cabinet-filing.svg

<svg xmlns="http://www.w3.org/2000/svg" viewBox="0 0 448 512"><!-- Font Awesome Pro 6.0.0-alpha2 by @fontawesome - https://fontawesome.com License - https://fontawesome.com/license (Commercial License) --><path d="M136 400C140.422 400 144 396.422 144 392V376C144 371.594 147.594 368 152 368H296C300.406 368 304 371.594 304 376V392C304 396.422 307.578 400 312 400S320 396.422 320 392V376C320 362.766 309.234 352 296 352H152C138.766 352 128 362.766 128 376V392C128 396.422 131.578 400 136 400ZM296 96H152C138.766 96 128 106.766 128 120V136C128 140.422 131.578 144 136 144S144 140.422 144 136V120C144 115.594 147.594 112 152 112H296C300.406 112 304 115.594 304 120V136C304 140.422 307.578 144 312 144S320 140.422 320 136V120C320 106.766 309.234 96 296 96ZM384 0H64C28.656 0 0 28.656 0 64V448C0 483.344 28.656 512 64 512H384C419.344 512 448 483.344 448 448V64C448 28.656 419.344 0 384 0ZM432 448C432 474.469 410.469 496 384 496H64C37.531 496 16 474.469 16 448V264H432V448ZM432 248H16V64C16 37.531 37.531 16 64 16H384C410.469 16 432 37.531 432 64V248Z"/></svg>

<svg xmlns="http://www.w3.org/2000/svg" viewBox="0 0 448 512"><!--! Font Awesome Pro 6.0.0-alpha3 by @fontawesome - https://fontawesome.com License - https://fontawesome.com/license (Commercial License) --><path d="M136 400c4.422 0 8-3.578 8-8v-16c0-4.406 3.594-8 8-8h144c4.406 0 8 3.594 8 8v16c0 4.422 3.578 8 8 8S320 396.4 320 392v-16c0-13.23-10.77-24-24-24h-144C138.8 352 128 362.8 128 376v16C128 396.4 131.6 400 136 400zM296 96h-144C138.8 96 128 106.8 128 120v16C128 140.4 131.6 144 136 144S144 140.4 144 136v-16c0-4.406 3.594-8 8-8h144c4.406 0 8 3.594 8 8v16c0 4.422 3.578 8 8 8S320 140.4 320 136v-16C320 106.8 309.2 96 296 96zM384 0H64C28.66 0 0 28.66 0 64v384c0 35.34 28.66 64 64 64h320c35.34 0 64-28.66 64-64V64C448 28.66 419.3 0 384 0zM432 448c0 26.47-21.53 48-48 48H64c-26.47 0-48-21.53-48-48V264h416V448zM432 248h-416V64c0-26.47 21.53-48 48-48h320c26.47 0 48 21.53 48 48V248z"/></svg>
